X:224
T: 'S KAM EIN JUNGER SCHLEIFER HER, SCHLIFF DIE MESSER UND DIE SCHEER
N: Z0223
O: Europa, Mitteleuropa, Deutschland
N: Takt 3,4,8,9 werden gepfiffen.
R: Scherenschleifer -, Handwerker - Lied
M: 4/4
L: 1/16
K: F
 |  |  | f2e2f2e2f2c2c4 | B2G2G2G2A2F2F4
A4G4A4G4 | A2GGG2G2G6
G2 | A2G2G2G2A2G2G2GG | A2F2F2GGA2F2F
GAB | c2c2FGAccBAGF4
feffedeedcddB4 | BABBcGccGFGGF4

